src/icons/mermaid.svg

<?xml version="1.0" encoding="UTF-8"?>
<svg clip-rule="evenodd" fill-rule="evenodd" stroke-linejoin="round" stroke-miterlimit="2" version="1.1" viewBox="0 0 64 64" xml:space="preserve" xmlns="http://www.w3.org/2000/svg">
    <path d="m56.954 11.425c-11.047-0.47281-21.191 6.3243-24.954 16.721-3.7636-10.397-13.907-17.194-24.954-16.721-0.36801 8.7661 3.8257 17.126 11.073 22.072 3.7136 2.5506 5.9328 6.7811 5.9205 11.286v7.8151h15.924v-7.8151c-0.0129-4.5048 2.2058-8.7355 5.919-11.286 7.249-4.9441 11.443-13.305 11.073-22.072z" fill="#ff4081" fill-rule="nonzero" stroke-width=".15366"/>
</svg>

<svg viewBox="0 0 64 64" xmlns="http://www.w3.org/2000/svg">
  <path
    d="M56.954 11.425C45.907 10.9522 35.763 17.7493 32 28.146C28.2364 17.749 18.093 10.952 7.046 11.425C6.67799 20.1911 10.8717 28.551 18.119 33.497C21.8326 36.0476 24.0518 40.2781 24.0395 44.783V52.5981H39.9635V44.783C39.9506 40.2782 42.1693 36.0475 45.8825 33.497C53.1315 28.5529 57.3255 20.192 56.9555 11.425H56.954Z"
    fill="#FF4081"
  />
</svg>
